X: 34494
T: Riding On A Load Of Hay
R: polka
M: 2/4
K: Eminor
|:E>F GA|Be ef/e/|dB AG|FD DF|
E>F GA|Be e>f|g/f/e BB|1 e2 eB:|2 e2 e>f||
g/f/e f/e/d|eB B>^c|dB AG|FD De/f/|
g/f/e f/e/d|eB B>^c|dB AF|E2 Ee/f/|
g/f/e f/e/d|eB B>^c|dB AG|FD DF|
E/D/E/F/ G/F/G/A/|Be e>f|g/f/e BB|e2 e2||

